!!!ONB: MCCC : IGF0121_00 : Extracted Monophonic Melody
!!!COM: Fauré, Gabriel
!!!OTL: Valse Caprice No.4 in A-flat, Op.62
!!!SCT: Op.62
!!!ODT: 1894///
**kern
*staff1
=1
*clefG2
*k[b-e-a-]
*E-:
*M3/4
4ee-
4dd-
4dd-
=2
4dd-
2b-
=3
4a-
4f
4f
=4
4f
2e-[
=5
2e-]
4e
=6
2f
4g
=7
2a-
4b-
=8
2b
4cc
=9
4ee-
4dd-
4dd-
=10
4dd-
2b-
=11
4a-
4f
4f[
=12
2f]
4e-[
=13
2e-]
4e
=14
2f
4g
=15
2a-
4b-
=16
2b
4cc
=17
2cc
4f
=18
2ee
4ff
=19
2bb
4ccc
=20
2eee
4fff
=21
2bbb
4cccc[
=22
4cccc]
8r
8f
8dd
8aa-
=23
4r
12aa-
12bb-
12ccc
12ddd
12eee
12fff
=24
4r
12eee
12fff
12ggg
12aaa-
12bbb-
12bbb
=25
4cccc
4fff
4aaa-
=26
4ccc
4fff
4aa-
=27
4ccc
4ff
4aa-
=28
4dd
4ff
4a-
=29
2.r
=30
4ccc
4ff
4ff
=31
4aa-
4cc
4cc
=32
4ff
4b
4b
=33
4dd
4a-
4a-
=34
2.e-
=35
4f
4a-
4cc
=36
2.e-
=37
4f
4a-
4cc
=38
2.e-[
=39
2.e-]
=40
4f
4g
4a-[
=41
4a-]
4b-
4cc
=42
4cc
2c[
=43
4c]
4d-
4B
=44
4f
4g
4a-[
=45
4a-]
4b-
4cc
=46
4dd
4a
4g-
=47
2.e-
=48
4f
4g
4a-[
=49
4a-]
4b-
4cc
=50
4B
2f
=51
2.B
=52
2B
4c
=53
4f
4f
4f
=54
2.f[
=55
4f]
4d
4e-
=56
4f
4a-
4cc
=57
4ff
4dd
4ee-
=58
8ff
8a-
8cc
8ff
8dd
8ee-
=59
8ff
8aa-
8ccc
8fff
8ddd
8eee-
=60
8fff
8aa-
8ccc
8fff
8ddd
8eee-
=61
8fff
8aaa-
8cccc
8ffff
8dddd
8eeee-
=62
8aaaa-
8gggg
8ffff
8eeee-
8dddd-
8cccc
=63
8bbb-
8aaa-
8ggg
8aaa-
8bbb-
8bbb
=64
8cccc
8dddd-
8ffff
8eeee-
8dddd-
8cccc
=65
8bbb-
8aaa-
8ggg
8fff
8eee-
8ddd-
=66
8cccc
8bbb-
4aaa-
4eee-
=67
8ccc
8bb-
4aa-
4ee-
=68
4r
8c
8e-
8a-
8cc
=69
8ee-
8aa-
8ccc
8eee-
8aaa-
8cccc
=70
8gggg-
8eeee
8eeee-
8dddd-
8bbb
8aaa
=71
8aaa-
8ggg-
8eee
8ddd
8ccc#
8bb
=72
8bb-
8aa-
8gg
8ff
8ee-
8dd
=73
8dd-
8ee-
8ff
8gg
8aa-
8bb-
=74
8cccc
8bbb-
4aaa-
4eee-
=75
8ccc
8bb-
4aa-
4ee-
=76
4r
8c
8e
8a-
8cc
=77
8ee
8aa-
8ccc
8eee
8aaa-
8cccc
=78
8gggg-
8ffff
8eeee-
8dddd-
8cccc
8bbb-
=79
8aaa-
8ggg-
8fff
8eee-
8ddd-
8ccc
=80
8bb-
8aa-
8gg
8ff
8ee-
8dd-
=81
8cc
8ee-
8aa-
8ccc
4aaa-
=82
8ee-
8b-
8gg
8ee-
8bb-
8b-
=83
8gg
8ee-
8bb-
8gg
8eee-
8bb-
=84
8ggg
8ddd-
8fff
8aa-
8ddd-
8ff
=85
8ccc
8gg
8bb-
8dd
8gg
8b-
=86
8ee-
8b-
8gg
8ee-
8bb-
8b-
=87
8gg
8ee-
8bb-
8gg
8eee-
8bb-
=88
4.ggg
4.fff
=89
2.fff
=90
8ee-
8b-
8gg
8ee-
8bb-
8b-
=91
8gg
8ee-
8bb-
8gg
8eee-
8bb-
=92
8ggg
8ddd-
8fff
8aa-
8ddd-
8ff
=93
8ccc
8gg
8bb-
8dd
8gg
8b-
=94
8ee-
8b-
8gg
8ee-
8bb-
8b-
=95
8gg
8ee-
8bb
8gg
8eee-
8bb
=96
4.ggg
4.fff
=97
2.fff
=98
8dd-
8b
4a
4e
=99
8r
8e
8a
8dd-
8ee
8aa
=100
4.ggg
4.fff
=101
2.fff
=102
8ddd-
8bb
4aa
4ee
=103
8r
8ee
8aa
8ddd-
8eee
8aaa
=104
4.gggg
4.ffff
=105
2.ffff
=106
8aaa
8aaa-
8ddd
8bb
8aa-
8dd
=107
8b
8dd
8aa-
8bb
8ddd
8fff
=108
8aaa
8aaa-
8ddd
8bb
8aa-
8dd
=109
8b
8dd
8aa-
8bb
8ddd
8fff
=110
8aaa
8aaa-
8ddd
8bb
8aa-
8dd
=111
8b
8dd
8aa-
8bb
8ddd
8fff
=112
8aaa
8aaa-
8ddd
8bb
8aa-
8dd
=113
4b
4r
4r
=114
8aa
8gg
8dd-
8a
8g
8d-
=115
8A
8d-
8g
8a
8dd-
8gg
=116
8aa
8gg
8dd-
8a
8g
8d-
=117
4A
4r
4r
=118
8bbb-
8aaa-
8ddd-
8bb-
8aa-
8dd-
=119
8b-
8dd-
8aa-
8bb-
8ddd-
8aaa-
=120
8bbb-
8aaa-
8ddd-
8bb-
8aa-
8dd-
=121
4b-
4r
4r
=122
8bb-
8aa-
8dd-
8b-
8a-
8d-
=123
8B-
8d-
8a-
8b-
8dd-
8aa-
=124
8bb-
8aa-
8dd-
8b-
8a-
8d-
=125
4B-
4r
4r
=126
4gg-
4ee
4ee[
=127
2.ee]
=128
4gg-
4ee
4ee[
=129
2.ee]
=130
4gg-
4ee
4ee
=131
2.ee[
=132
2.ee]
=133
4.gg-
4.ee
=134
4ee-
4dd-
4dd-
=135
4dd-
2b-
=136
4a-
4f
4f[
=137
4f]
4r
4r
=138
2e-
4e
=139
2f
4g
=140
2a-
4b-
=141
2b
4cc
=142
4ee-
4dd-
4dd-
=143
4dd-
2b-
=144
4a-
4e
4e
=145
4e
2d-
=146
2e-
4f
=147
4g
4g
4e-
=148
2f
4g
=149
4a
4a
4f
=150
2g
4a
=151
4b
4b
4cc
=152
2.dd
=153
4cc[
2cc]
=154
4cc[
4cc]
4dd
=155
4ee-
4ee-
4ff
=156
4gg
4gg
4gg
=157
4ff[
2ff]
=158
4ff[
4ff]
4gg
=159
4aa-
4aa-
4bb-
=160
4ccc
4ccc
4ccc[
=161
4ccc]
2ccc
=162
4ccc
4ccc
4bb-
=163
4.bb-
4.gg-
=164
2.gg-
=165
4r
4r
4e-[
=166
2.e-]
=167
2.r
=168
2.gg-
=169
4r
4r
4e-[
=170
2.e-]
=171
2.r
=172
2.aa-
=173
4ff
2ff
=174
4gg-
4gg-
4gg-
=175
4cc
2cc
=176
4b-
4b-
4b-
=177
4a-[
2a-]
=178
2.dd-
=179
2.r
=180
2.e-
=181
2.e-[
=182
2.e-]
=183
4f
2f
=184
4e-
4e-
4e-
=185
2.e-
=186
4e-
4e-
4e-
=187
4g
4g
4f
=188
8e-
8d-
8ee-
8d-
8e-
8d-
=189
8f
8c
8a-
8e-
8cc
8c
=190
8e-
8d-
8ee-
8d-
8e-
8d-
=191
8f
8c
8a-
8e-
8cc
8c
=192
2.r
=193
8e-
8d-
8ee-
8d-
8e-
8d-
=194
8f
8c
8a-
8e-
8cc
8c
=195
8a-
8e-
8b-
8c
8cc
8a-
=196
8cc
8gg-
8aa
8ccc
8ggg-
8aaa
=197
8eeee-
8eee-
8r
8e-
8r
8e-
=198
8f
8c
8a-
8e-
8cc
8c
=199
8a-
8e-
8b-
8c
8cc
8a-
=200
8cc
8gg-
8aa
8ccc
8ggg-
8aaa
=201
8eeee-
8eee-
8r
8e-
8r
8e-
=202
8f
8c
8a-
8e-
8cc
8c
=203
8a-
8e-
8b-
8c
8cc
8a-
=204
8ff
8bb
8ddd-
8eee-
8fff
8bbb
=205
8ffff
8eeee-
8dddd-
8bbb
8fff
8eee-
=206
8ddd-
8bb
8ff
8ee-
8dd-
8b
=207
8f
8e-
4d-
4r
=208
2.r
=209
8B-
8B
8c#
8d
8e-
8e
=210
8f
8c
8d
8e-
8g
8a-
=211
8ff
8ee-
8cc
8b-
8g
8a-
=212
8ff
8cc
8dd
8ee-
8gg
8aa-
=213
8fff
8eee-
8ccc
8bb-
8gg
8aa-
=214
8fff
8ccc
8ddd
8eee-
8ggg
8aaa-
=215
8ffff
8eeee-
8cccc
8bbb-
8ggg
8aaa-
=216
4aaaa-
8gggg
8ffff
8eeee-
8dddd-
=217
8cccc
8bbb-
8aaa-
8ggg
8bbb-
8aaa-
=218
8ggg
8fff
8eee-
8ddd-
8ccc
8bb-
=219
8aa-
8gg
8aa
8bb
8ccc
8ddd
=220
8eeee
8dddd
4cccc
4ggg
=221
8eee
8ddd
4ccc
4gg
=222
4r
8e
8g
8cc
8ee
=223
8ee
8gg
8ccc
8eee
8ggg
8cccc
=224
8bbb
8cccc
8ffff
8eeee-
8dddd-
8cccc
=225
8bbb-
8aaa-
8ggg-
8fff
8eee-
8ddd-
=226
8ccc
8bb-
8aa-
8gg
8ff
8ee-
=227
8dd
8cc
8b-
8a-
4g
=228
8eeee
8dddd
4cccc
4ggg
=229
8eee
8ddd
4ccc
4gg
=230
4r
8e
8a-
8cc
8ee
=231
8aa-
8ccc
8eee
8aaa-
8cccc
8eeee
=232
8gggg
8ffff
8eeee
8dddd
8cccc
8bbb-
=233
8aaa
8ggg
8fff
8eee
8ddd
8ccc
=234
8bb-
8aa
8gg
8ff#
8aa
8gg
=235
8ee-
8ee
8gg
8ccc
4cccc
=236
2.r
=237
4r
4r
8r
8g
=238
8B
8b
8r
8a
8r
8f
=239
2.r
=240
8r
8g
8r
8b
8r
8dd
=241
8r
8b
8r
8dd
8r
8gg
=242
8bb
8bb[
8bb]
8aa[
8aa]
8ff
=243
8aa[
8aa]
8fff
8ccc
8aa
8ff
=244
8gg
8dd
8bb
8gg
8ddd
8dd
=245
8bb
8gg
8ddd
8bb
8ggg
8ddd
=246
8bbb
8fff
8aaa
8ccc
8fff
8aa
=247
8eee
8bb
8ddd
8gg-
8bb
8dd
=248
8gg
8dd
8bb
8gg
8ddd
8dd
=249
8bb
8gg
8eee-
8bb
8ggg
8eee-
=250
8bbb
8bbb[
8bbb]
8aaa[
8aaa]
8ccc
=251
8aaa[
8aaa]
8ccc
8aa
8gg-
8cc
=252
8gg[
8gg]
8b
8dd
8ff
8aa-
=253
8bb
8gg
8aa-
8bb
8ddd
8fff
=254
8eee
8eee[
8eee]
8ddd[
8ddd]
8ff
=255
8ddd[
8ddd]
8ff
8dd
8b
8f
=256
8cc[
8cc]
8e
8g
8b-
8dd-
=257
8ee
8cc
8dd-
8ee
8gg
8bb-
=258
8aaa
8aaa[
8aaa]
8ggg[
8ggg]
8bb-
=259
8ggg[
8ggg]
8bb-
8gg
8ee
8b-
=260
8ff[
8ff]
8a
8cc
8ee-
8gg-
=261
8aa
8ff
8gg-
8aa-
8ccc
8ddd
=262
4.fff
4.eee-
=263
4eee-
8r
8b
8dd-
8ee-
=264
8ff[
8ff]
8a
8cc
8ee-
8gg-
=265
8aa
8ff
8gg-
8aa
8ccc
8ddd-
=266
4.ffff
4.eeee-
=267
4eeee-
8r
8bb
8ddd-
8eee-
=268
4fff
4eee-
4eee-[
=269
4eee-]
4ccc
4gg
=270
8r
8gg
8ccc
8eee-
8ggg
8cccc
=271
8gggg
8cccc
8ggg
8fff
8eee-
8fff
=272
8ggg
8ccc
8gg
8ff
8ee-
8ff
=273
8gg
8cc
8g
8f
8e-
8f
=274
4g
4r
4r
=275
2.r
=276
2.r
=277
2.r
=278
4r
8A-
8e-
8g-
8a-
=279
8r
8b-
8e-
8ee-
8g-
8gg-
=280
4r
8a-
8b
8ee
8gg#
=281
8r
8aa
8ee-
8eee-
8gg-
8ggg-
=282
4r
8aa-
8bb
8eee
8ggg#
=283
8r
8aaa
8eee-
8eeee-
8ggg-
8gggg-
=284
8gggg
8eeee-
8cccc
8ggg
8ggg
8eee-
=285
8fff
8ddd-
8aa-
8ff
8ff
8dd-
=286
8b
8ee-
8gg-
8bb
8ee-
8gg-
=287
8aa
8ddd-
8eee
8aaa
8ddd-
8eee
=288
8aaa-
8eee
8ddd-
8aa-
8aa-
8ee
=289
8gg-
8dd
8a
8g-
8g-
8d
=290
8c
8e
8g
8cc
8e
8g
=291
8b-
8dd
8ff
8bb-
8ddd
8dd
=292
2.r
=293
8r
8c
8e
8g
8cc
8ee
=294
8gg
8cc
8ee
8gg
8ccc
8eee
=295
8ggg
8ccc
8eee
8ggg
8cccc
8eeee
=296
4gggg
4r
4r
=297
8r
8c
8e-
8g
8cc
8ee-
=298
8gg
8cc
8ee-
8gg
8ccc
8eee-
=299
8ggg
8ccc
8eee-
8ggg
8cccc
8eeee-
=300
4gggg
4r
4r
=301
8r
8G
8B-
8d-
8g
8b-
=302
8gg
8g
8b-
8dd-
8gg
8bb-
=303
8ggg
8gg
8bb-
8ddd-
8ggg
8bbb-
=304
8gggg
8bbb-
8dddd-
8ffff
8bbb-
8dddd-
=305
8gggg
8bbb-
8dddd-
8ffff
8bbb-
8dddd-
=306
8gggg
8bbb-
8dddd-
8ffff
8bbb-
8dddd-
=307
8gggg
8bbb-
8dddd-
8ffff
8bbb-
8dddd-
=308
4gggg
4r
4r
=309
8r
8bbb-
8dddd-
8ffff
8bbb-
8dddd-
=310
4gggg
4r
4r
=311
8r
8bb-
8ddd-
8fff
8bb-
8ddd-
=312
4ggg
4r
4r
=313
2.r
=314
8c
8d
8e-
8f
8g
8a-
=315
8b-
8cc
8dd
8ee-
8ff
8dd
=316
8ee-
8ff
8gg
8aa-
8bb-
8ccc
=317
8eee-[
8eee-]
8ddd-
8ff
8ddd-
8ddd-
=318
8ddd-[
8ddd-]
8bb-
8bb-
8bb-[
8bb-]
=319
8aa-[
8aa-]
8ff
8dd-
8ff
8ff
=320
8ff[
8ff]
8ee
8ee
8ee[
8ee]
=321
8ee-[
8ee-]
8gg
8b
8gg
8gg
=322
8gg[
8gg]
8bb
8bb
8bb[
8bb]
=323
8ccc[
8ccc]
8aaa-
8aa-
4aaa-[
=324
4aaa-]
4ggg
4fff
=325
4r
8ddd-
8ee
4ddd-[
=326
4ddd-]
8r
8b-
8ee-
8gg
=327
8aa-[
8aa-]
8ff
8cc
4ff[
=328
4ff]
8r
8e
8a-
8b
=329
8ee-[
8ee-]
8gg[
8gg]
8ff[
8ff]
=330
8aa[
8aa]
2gg
=331
2.r
=332
2.ccc
=333
2.r
=334
2.fff
=335
2.r
=336
2.bbb-
=337
8cccc
8bbb-
8aaa-
8eee-
8ccc
8aa-
=338
8ccc
8bb-
8aa-
8ee-
8cc
8a-
=339
8cc
8b-
8a-
8cc
8ff
8aa-
=340
8ccc
8bb-
8aa-
8fff
8gg
8ff
=341
4.ee-[
8ee-]
8dd-[
8dd-]
=342
4.dd-
8dd-
8dd-[
8dd-]
=343
2cc
8g
8g
=344
8g[
8g]
8a[
8a]
8b-[
8b-]
=345
4.ee-[
8ee-]
8dd-[
8dd-]
=346
4.dd-
8dd-
8dd-[
8dd-]
=347
2cc
8g
8g
=348
8g[
8g]
8a[
8a]
8b-[
8b-]
=349
4.gg-
8ee-
8ee-[
8ee-]
=350
4.dd-
8a
8a[
8a]
=351
4.b
8b
8b
8b[
=352
4b]
8g[
8g]
8a-[
8a-]
=353
4.dd-
8dd-
8dd-
8dd-[
=354
4dd-]
8a[
8a]
8b-[
8b-]
=355
4.ee-
8ee-
8ee-
8ee-[
=356
4ee-]
8b[
8b]
8cc[
8cc]
=357
2.ff
=358
2.r
=359
2.aa-
=360
2.r
=361
2.ff
=362
2.r
=363
2.aa-
=364
2.r
=365
2ff
4ee-
=366
4gg[
2gg]
=367
2aa-
4gg
=368
4bb[
2bb]
=369
2ccc
4bb
=370
4eee-[
2eee-]
=371
2eee
4ddd
=372
4ggg-[
2ggg-]
=373
8ggg
8ggg
8ggg[
8ggg]
8fff
8fff[
=374
8fff]
8eee-
8fff
8fff
8fff[
8fff]
=375
2eee-
8gg
8gg
=376
8gg[
8gg]
8gg
8bb-
8eee-
8fff
=377
8ggg
8ggg
8ggg[
8ggg]
8fff
8fff[
=378
8fff]
8eee-
8fff
8fff
8fff[
8fff]
=379
2eee-
8gg
8gg
=380
8gg[
8gg]
8gg
8bb-
8eee-
8ggg
=381
8bbb-
8bbb-[
8bbb-]
8cccc
8aaa-
8aaa-[
=382
8aaa-]
8bbb-
8ggg
8ggg[
8ggg]
8aaa-
=383
8fff
8fff[
8fff]
8ggg
8eee-
8eee-[
=384
8eee-]
8fff
8ddd
8ddd[
8ddd]
8eee-
=385
8ccc
8ccc[
8ccc]
8ddd
8bb-
8bb-[
=386
8bb-]
8ccc
8aa-
8aa-[
8aa-]
8bb-
=387
8gg
8gg[
8gg]
8aa-
8ff
8ff[
=388
8ff]
8gg-
8ee
8ee[
8ee]
8ee
=389
8ee-
8ee-[
8ee-]
8ee-
8gg-
8gg-[
=390
8gg-]
8gg-
8ff
8ff[
8ff]
8ff
=391
8ccc
8ccc[
8ccc]
8ccc
8bb-
8bb-[
=392
8bb-]
8bb-
8fff
8fff[
8fff]
8fff
=393
8ddd
8ddd[
8ddd]
8fff
8eee-
8eee-[
=394
8eee-]
8ddd
8eee-
8eee-[
8eee-]
8fff
=395
8ddd
8ddd[
8ddd]
8fff
8eee-
8eee-[
=396
8eee-]
8ddd
8eee-
8eee-[
8eee-]
8fff
=397
8ddd
8ddd[
8ddd]
8fff
8eee-
8eee-[
=398
8eee-]
8ddd
8eee-
8eee-[
8eee-]
8fff
=399
8ddd
8ddd[
8ddd]
8fff
8eee-
8eee-[
=400
8eee-]
8ddd
8eee-
8eee-[
8eee-]
8fff
=401
4gggg
4cccc
4eeee-
=402
4ggg
4cccc
4eee-
=403
4ggg
4ccc
4eee-
=404
4aa
4ccc
4ee-
=405
4.dd
8ff
4ee-[
=406
8ee-]
8dd
8r
8a
8dd
8ff
=407
2dd
4r
=408
2.r
=409
4ggg
4ccc
4eee-
=410
4gg
4ccc
4ee-
=411
4gg
4cc
4ee-
=412
4a
4cc
4e-
=413
4.d
8f
4e-
=414
4.ee
8gg
4ff
=415
4.g-
8a-
4g
=416
4.aa
8ccc
4bb-
=417
8b
8ee-
8bb
8ee-
8dd-
8ee
=418
8ddd-
8ee
8dd
8ff
8ddd
8ff
=419
8eee-[
8eee-]
4r
8ee-[
8ee-]
=420
4r
8b-[
8b-]
4r
=421
8B
8e-
8b
8e-
8d-
8e
=422
8dd-
8e
8d
8f
8dd
8f
=423
8ee-[
8ee-]
4r
4r
=424
2.r
=425
2.r
=426
2.r
=427
8a-[
8a-]
4r
8cc[
8cc]
=428
4r
8ee-[
8ee-]
4r
=429
8aa-[
8aa-]
4r
8ccc[
8ccc]
=430
4r
8eee-[
8eee-]
4r
=431
8aaa-[
8aaa-]
4r
8cccc[
8cccc]
=432
4r
8eeee-[
8eeee-]
4r
=433
*M7/8
4.aaaa-
8r
8r
4r
=434
*M3/4
4r
4r
8r
8f
=435
8a-
8b-
4dd
4r
=436
8r
8fff
8aaa-
8bbb-
8dddd
8ffff
=437
*M4/4
4aaaa-
4r
2r
=438
1r
=439
*M3/4
4eee-
4ddd-
4ddd-
=440
*M4/4
4ddd-
2.bb-
=441
*M3/4
2.r
=442
4r
4aaa-
4r
=443
4eee
4r
4gg
=444
4r
4aa-
4r
=445
4ee-
4r
4g
=446
4r
4aaa-
4r
=447
2.r
==
*-
